; G-Code generated by Simplify3D(R) Version 4.0.1
; Nov 4, 2018 at 7:58:02 PM
; Settings Summary
;   processName,Process1
;   applyToModels,extr_motor_holder
;   profileName,MyProfils
;   profileVersion,2018-09-14 23:07:24
;   baseProfile,Default (modified)
;   printMaterial,PLA
;   printQuality,0.3
;   printExtruders,
;   extruderName,Primary Extruder
;   extruderToolheadNumber,0
;   extruderDiameter,0.4
;   extruderAutoWidth,0
;   extruderWidth,0.4
;   extrusionMultiplier,1
;   extruderUseRetract,1
;   extruderRetractionDistance,2.8
;   extruderExtraRestartDistance,-0.2
;   extruderRetractionZLift,0
;   extruderRetractionSpeed,1800
;   extruderUseCoasting,0
;   extruderCoastingDistance,0.2
;   extruderUseWipe,0
;   extruderWipeDistance,5
;   primaryExtruder,0
;   layerHeight,0.3
;   topSolidLayers,3
;   bottomSolidLayers,3
;   perimeterOutlines,2
;   printPerimetersInsideOut,1
;   startPointOption,2
;   startPointOriginX,0
;   startPointOriginY,0
;   sequentialIslands,0
;   spiralVaseMode,0
;   firstLayerHeightPercentage,100
;   firstLayerWidthPercentage,100
;   firstLayerUnderspeed,0.75
;   useRaft,0
;   raftExtruder,0
;   raftTopLayers,3
;   raftBaseLayers,2
;   raftOffset,3
;   raftSeparationDistance,0.14
;   raftTopInfill,100
;   aboveRaftSpeedMultiplier,0.3
;   useSkirt,1
;   skirtExtruder,0
;   skirtLayers,1
;   skirtOutlines,2
;   skirtOffset,5
;   usePrimePillar,0
;   primePillarExtruder,999
;   primePillarWidth,12
;   primePillarLocation,7
;   primePillarSpeedMultiplier,1
;   useOozeShield,0
;   oozeShieldExtruder,999
;   oozeShieldOffset,2
;   oozeShieldOutlines,1
;   oozeShieldSidewallShape,1
;   oozeShieldSidewallAngle,30
;   oozeShieldSpeedMultiplier,1
;   infillExtruder,0
;   internalInfillPattern,Rectilinear
;   externalInfillPattern,Rectilinear
;   infillPercentage,30
;   outlineOverlapPercentage,15
;   infillExtrusionWidthPercentage,100
;   minInfillLength,5
;   infillLayerInterval,1
;   internalInfillAngles,45,-45
;   overlapInternalInfillAngles,0
;   externalInfillAngles,45,-45
;   generateSupport,0
;   supportExtruder,0
;   supportInfillPercentage,16
;   supportExtraInflation,0
;   supportBaseLayers,2
;   denseSupportExtruder,0
;   denseSupportLayers,0
;   denseSupportInfillPercentage,40
;   supportLayerInterval,1
;   supportHorizontalPartOffset,0.1
;   supportUpperSeparationLayers,1
;   supportLowerSeparationLayers,1
;   supportType,0
;   supportGridSpacing,4.5
;   maxOverhangAngle,60
;   supportAngles,0
;   temperatureName,Primary Extruder,Bed
;   temperatureNumber,0,0
;   temperatureSetpointCount,1,1
;   temperatureSetpointLayers,1,1
;   temperatureSetpointTemperatures,220,60
;   temperatureStabilizeAtStartup,1,1
;   temperatureHeatedBed,0,1
;   temperatureRelayBetweenLayers,0,0
;   temperatureRelayBetweenLoops,0,0
;   fanLayers,1,3
;   fanSpeeds,0,80
;   blipFanToFullPower,0
;   adjustSpeedForCooling,1
;   minSpeedLayerTime,15
;   minCoolingSpeedSlowdown,20
;   increaseFanForCooling,1
;   minFanLayerTime,45
;   maxCoolingFanSpeed,100
;   increaseFanForBridging,1
;   bridgingFanSpeed,100
;   use5D,1
;   relativeEdistances,0
;   allowEaxisZeroing,1
;   independentExtruderAxes,0
;   includeM10123,0
;   stickySupport,1
;   applyToolheadOffsets,0
;   gcodeXoffset,0
;   gcodeYoffset,0
;   gcodeZoffset,0
;   overrideMachineDefinition,0
;   machineTypeOverride,0
;   strokeXoverride,200
;   strokeYoverride,200
;   strokeZoverride,200
;   originOffsetXoverride,0
;   originOffsetYoverride,0
;   originOffsetZoverride,0
;   homeXdirOverride,-1
;   homeYdirOverride,-1
;   homeZdirOverride,-1
;   flipXoverride,1
;   flipYoverride,-1
;   flipZoverride,1
;   toolheadOffsets,0,0|0,0|0,0|0,0|0,0|0,0
;   overrideFirmwareConfiguration,0
;   firmwareTypeOverride,RepRap (Marlin/Repetier/Sprinter)
;   GPXconfigOverride,r2
;   baudRateOverride,115200
;   overridePrinterModels,0
;   printerModelsOverride
;   startingGcode,G28 ;Home,G29 ;Bed leveling,G92 E0 ;Prime the extruder,G1 F6000 X0 Y205,G1 E2,G1 F600 Z0.2,G1 F1800 X100 E12,G1 E10,G92 E0
;   layerChangeGcode,
;   retractionGcode,
;   toolChangeGcode,
;   endingGcode,M104 S0 ; turn off extruder,M140 S0 ; turn off bed,G92 E1,G1 E-1 F300,G1 F6000 X5 Y200,M106 S0,M84 ; disable motors
;   exportFileFormat,gcode
;   celebration,0
;   celebrationSong,Random Song
;   postProcessing,
;   defaultSpeed,4800
;   outlineUnderspeed,0.9
;   solidInfillUnderspeed,0.9
;   supportUnderspeed,0.9
;   rapidXYspeed,6000
;   rapidZspeed,1000
;   minBridgingArea,50
;   bridgingExtraInflation,0
;   bridgingExtrusionMultiplier,1
;   bridgingSpeedMultiplier,1
;   useFixedBridgingAngle,0
;   fixedBridgingAngle,0
;   applyBridgingToPerimeters,0
;   filamentDiameters,1.75|1.75|1.75|1.75|1.75|1.75
;   filamentPricesPerKg,105|46|46|46|46|46
;   filamentDensities,1.25|1.25|1.25|1.25|1.25|1.25
;   useMinPrintHeight,0
;   minPrintHeight,0
;   useMaxPrintHeight,0
;   maxPrintHeight,0
;   useDiaphragm,0
;   diaphragmLayerInterval,20
;   robustSlicing,1
;   mergeAllIntoSolid,0
;   onlyRetractWhenCrossingOutline,1
;   retractBetweenLayers,1
;   useRetractionMinTravel,1
;   retractionMinTravel,3
;   retractWhileWiping,0
;   onlyWipeOutlines,1
;   avoidCrossingOutline,0
;   maxMovementDetourFactor,3
;   toolChangeRetractionDistance,12
;   toolChangeExtraRestartDistance,-0.5
;   toolChangeRetractionSpeed,600
;   externalThinWallType,0
;   internalThinWallType,2
;   thinWallAllowedOverlapPercentage,10
;   singleExtrusionMinLength,1
;   singleExtrusionMinPrintingWidthPercentage,50
;   singleExtrusionMaxPrintingWidthPercentage,200
;   singleExtrusionEndpointExtension,0.2
;   horizontalSizeCompensation,0
G90
M82
M106 S0
M140 S60
M190 S60
M104 S220 T0
M109 S220 T0
G28 ;Home
G29 ;Bed leveling
G92 E0 ;Prime the extruder
G1 F6000 X0 Y205
G1 E2
G1 F600 Z0.2
G1 F1800 X100 E12
G1 E10
G92 E0
G92 E0
G1 E-2.8000 F1800
G1 Z0.300 F1000
; process Process1
; layer 1, Z = 0.300
T0
; tool H0.300 W0.400
; skirt
G1 X74.463 Y72.291 F6000
G1 E-0.2000 F540
G92 E0
G1 X74.479 Y72.273 E0.0012 F3600
G1 X74.773 Y71.979 E0.0220
G1 X74.791 Y71.963 E0.0231
G1 X75.346 Y71.488 E0.0596
G1 X75.364 Y71.474 E0.0607
G1 X75.701 Y71.229 E0.0815
G1 X75.721 Y71.216 E0.0827
G1 X76.344 Y70.834 E0.1191
G1 X76.364 Y70.823 E0.1203
G1 X76.735 Y70.634 E0.1411
G1 X76.757 Y70.624 E0.1423
G1 X77.431 Y70.344 E0.1787
G1 X77.453 Y70.336 E0.1799
G1 X77.850 Y70.208 E0.2007
G1 X77.872 Y70.201 E0.2018
G1 X78.582 Y70.031 E0.2383
G1 X78.606 Y70.026 E0.2394
G1 X79.017 Y69.961 E0.2602
G1 X79.040 Y69.958 E0.2614
G1 X79.664 Y69.909 E0.2926
G1 X79.676 Y69.908 E0.2932
G1 X79.884 Y69.900 E0.3036
G1 X79.896 Y69.900 E0.3042
G1 X130.111 Y69.901 E2.8094
G1 X130.123 Y69.901 E2.8100
G1 X130.331 Y69.909 E2.8204
G1 X130.343 Y69.910 E2.8210
G1 X130.960 Y69.958 E2.8519
G1 X130.983 Y69.961 E2.8531
G1 X131.395 Y70.026 E2.8738
G1 X131.418 Y70.031 E2.8750
G1 X132.128 Y70.201 E2.9114
G1 X132.150 Y70.208 E2.9126
G1 X132.547 Y70.336 E2.9334
G1 X132.569 Y70.344 E2.9346
G1 X133.243 Y70.624 E2.9710
G1 X133.265 Y70.634 E2.9722
G1 X133.636 Y70.823 E2.9930
G1 X133.657 Y70.835 E2.9941
G1 X134.279 Y71.216 E3.0306
G1 X134.299 Y71.229 E3.0318
G1 X134.635 Y71.474 E3.0525
G1 X134.654 Y71.488 E3.0537
G1 X135.209 Y71.963 E3.0901
G1 X135.227 Y71.979 E3.0913
G1 X135.521 Y72.273 E3.1121
G1 X135.537 Y72.290 E3.1133
G1 X136.012 Y72.846 E3.1497
G1 X136.026 Y72.864 E3.1509
G1 X136.271 Y73.201 E3.1717
G1 X136.284 Y73.221 E3.1728
G1 X136.666 Y73.844 E3.2093
G1 X136.677 Y73.864 E3.2104
G1 X136.866 Y74.235 E3.2312
G1 X136.876 Y74.257 E3.2324
G1 X137.156 Y74.931 E3.2688
G1 X137.164 Y74.953 E3.2700
G1 X137.292 Y75.350 E3.2908
G1 X137.299 Y75.372 E3.2920
G1 X137.469 Y76.082 E3.3284
G1 X137.474 Y76.105 E3.3296
G1 X137.539 Y76.517 E3.3503
G1 X137.542 Y76.540 E3.3515
G1 X137.591 Y77.164 E3.3828
G1 X137.592 Y77.176 E3.3833
G1 X137.600 Y77.384 E3.3937
G1 X137.600 Y77.396 E3.3943
G1 X137.600 Y105.414 E4.7921
G1 X137.615 Y105.903 E4.8165
G1 X137.653 Y106.303 E4.8366
G1 X137.716 Y106.700 E4.8567
G1 X137.804 Y107.092 E4.8767
G1 X137.916 Y107.478 E4.8968
G1 X138.053 Y107.857 E4.9168
G1 X138.212 Y108.225 E4.9369
G1 X138.395 Y108.583 E4.9569
G1 X138.600 Y108.929 E4.9770
G1 X138.826 Y109.262 E4.9970
G1 X139.072 Y109.579 E5.0171
G1 X139.338 Y109.881 E5.0372
G1 X139.622 Y110.165 E5.0572
G1 X139.924 Y110.431 E5.0773
G1 X140.242 Y110.677 E5.0973
G1 X140.574 Y110.903 E5.1174
G1 X140.920 Y111.107 E5.1374
G1 X141.279 Y111.289 E5.1575
G1 X141.648 Y111.449 E5.1775
G1 X142.026 Y111.585 E5.1976
G1 X142.412 Y111.697 E5.2176
G1 X142.804 Y111.784 E5.2377
G1 X143.201 Y111.847 E5.2577
G1 X143.594 Y111.884 E5.2774
G1 X144.162 Y111.900 E5.3058
G1 X155.112 Y111.901 E5.8521
G1 X155.124 Y111.901 E5.8527
G1 X155.332 Y111.909 E5.8630
G1 X155.344 Y111.910 E5.8636
G1 X155.960 Y111.958 E5.8945
G1 X155.983 Y111.961 E5.8956
G1 X156.394 Y112.026 E5.9164
G1 X156.418 Y112.031 E5.9176
G1 X157.128 Y112.201 E5.9540
G1 X157.150 Y112.208 E5.9552
G1 X157.547 Y112.336 E5.9760
G1 X157.569 Y112.344 E5.9772
G1 X158.243 Y112.624 E6.0136
G1 X158.265 Y112.634 E6.0148
G1 X158.636 Y112.823 E6.0356
G1 X158.657 Y112.835 E6.0367
G1 X159.279 Y113.216 E6.0732
G1 X159.299 Y113.229 E6.0743
G1 X159.635 Y113.474 E6.0951
G1 X159.654 Y113.488 E6.0963
G1 X160.209 Y113.963 E6.1327
G1 X160.227 Y113.979 E6.1339
G1 X160.521 Y114.273 E6.1547
G1 X160.537 Y114.290 E6.1558
G1 X161.012 Y114.846 E6.1923
G1 X161.026 Y114.864 E6.1935
G1 X161.271 Y115.201 E6.2142
G1 X161.284 Y115.221 E6.2154
G1 X161.666 Y115.844 E6.2519
G1 X161.677 Y115.864 E6.2530
G1 X161.866 Y116.235 E6.2738
G1 X161.876 Y116.257 E6.2750
G1 X162.156 Y116.931 E6.3114
G1 X162.164 Y116.953 E6.3126
G1 X162.292 Y117.350 E6.3334
G1 X162.299 Y117.372 E6.3345
G1 X162.469 Y118.082 E6.3710
G1 X162.474 Y118.105 E6.3722
G1 X162.539 Y118.517 E6.3929
G1 X162.542 Y118.540 E6.3941
G1 X162.591 Y119.165 E6.4254
G1 X162.592 Y119.177 E6.4260
G1 X162.600 Y119.385 E6.4364
G1 X162.600 Y119.397 E6.4370
G1 X162.599 Y121.613 E6.5475
G1 X162.599 Y121.625 E6.5481
G1 X162.591 Y121.832 E6.5585
G1 X162.590 Y121.844 E6.5590
G1 X162.542 Y122.460 E6.5899
G1 X162.539 Y122.483 E6.5910
G1 X162.474 Y122.894 E6.6118
G1 X162.469 Y122.918 E6.6130
G1 X162.299 Y123.628 E6.6494
G1 X162.292 Y123.650 E6.6506
G1 X162.164 Y124.047 E6.6714
G1 X162.156 Y124.069 E6.6726
G1 X161.876 Y124.743 E6.7090
G1 X161.866 Y124.765 E6.7102
G1 X161.677 Y125.136 E6.7309
G1 X161.666 Y125.156 E6.7321
G1 X161.284 Y125.779 E6.7686
G1 X161.271 Y125.799 E6.7697
G1 X161.026 Y126.136 E6.7905
G1 X161.012 Y126.154 E6.7917
G1 X160.537 Y126.710 E6.8281
G1 X160.521 Y126.727 E6.8293
G1 X160.227 Y127.021 E6.8501
G1 X160.209 Y127.037 E6.8513
G1 X159.654 Y127.512 E6.8877
G1 X159.635 Y127.526 E6.8889
G1 X159.299 Y127.771 E6.9096
G1 X159.279 Y127.784 E6.9108
G1 X158.657 Y128.165 E6.9472
G1 X158.636 Y128.177 E6.9484
G1 X158.265 Y128.366 E6.9692
G1 X158.243 Y128.376 E6.9704
G1 X157.569 Y128.656 E7.0068
G1 X157.547 Y128.664 E7.0080
G1 X157.150 Y128.792 E7.0288
G1 X157.128 Y128.799 E7.0299
G1 X156.418 Y128.969 E7.0664
G1 X156.394 Y128.974 E7.0676
G1 X155.983 Y129.039 E7.0883
G1 X155.960 Y129.042 E7.0895
G1 X155.336 Y129.091 E7.1207
G1 X155.324 Y129.092 E7.1213
G1 X155.116 Y129.100 E7.1317
G1 X155.104 Y129.100 E7.1323
G1 X127.889 Y129.099 E8.4901
G1 X127.877 Y129.099 E8.4907
G1 X127.669 Y129.091 E8.5011
G1 X127.657 Y129.090 E8.5017
G1 X127.040 Y129.042 E8.5325
G1 X127.017 Y129.039 E8.5337
G1 X126.605 Y128.974 E8.5545
G1 X126.582 Y128.969 E8.5557
G1 X125.872 Y128.799 E8.5921
G1 X125.850 Y128.792 E8.5933
G1 X125.453 Y128.664 E8.6140
G1 X125.431 Y128.656 E8.6152
G1 X124.757 Y128.376 E8.6517
G1 X124.735 Y128.366 E8.6528
G1 X124.364 Y128.177 E8.6736
G1 X124.344 Y128.166 E8.6748
G1 X123.721 Y127.784 E8.7112
G1 X123.701 Y127.771 E8.7124
G1 X123.364 Y127.526 E8.7332
G1 X123.346 Y127.512 E8.7343
G1 X122.791 Y127.037 E8.7708
G1 X122.773 Y127.021 E8.7720
G1 X122.479 Y126.727 E8.7927
G1 X122.463 Y126.709 E8.7939
G1 X121.988 Y126.154 E8.8303
G1 X121.974 Y126.136 E8.8315
G1 X121.729 Y125.799 E8.8523
G1 X121.716 Y125.779 E8.8535
G1 X121.334 Y125.156 E8.8899
G1 X121.323 Y125.136 E8.8911
G1 X121.134 Y124.765 E8.9119
G1 X121.124 Y124.743 E8.9130
G1 X120.844 Y124.069 E8.9495
G1 X120.836 Y124.047 E8.9506
G1 X120.708 Y123.650 E8.9714
G1 X120.701 Y123.628 E8.9726
G1 X120.531 Y122.918 E9.0090
G1 X120.526 Y122.894 E9.0102
G1 X120.461 Y122.483 E9.0310
G1 X120.458 Y122.460 E9.0322
G1 X120.409 Y121.836 E9.0634
G1 X120.408 Y121.824 E9.0640
G1 X120.400 Y121.616 E9.0744
G1 X120.400 Y121.604 E9.0750
G1 X120.400 Y87.320 E10.7854
G1 X120.180 Y87.100 E10.8009
G1 X89.820 Y87.100 E12.3156
G1 X89.600 Y87.320 E12.3311
G1 X89.599 Y122.611 E14.0918
G1 X89.599 Y122.623 E14.0924
G1 X89.591 Y122.831 E14.1028
G1 X89.590 Y122.843 E14.1034
G1 X89.542 Y123.460 E14.1343
G1 X89.539 Y123.483 E14.1354
G1 X89.474 Y123.895 E14.1562
G1 X89.469 Y123.918 E14.1574
G1 X89.299 Y124.628 E14.1938
G1 X89.292 Y124.650 E14.1950
G1 X89.164 Y125.047 E14.2158
G1 X89.156 Y125.069 E14.2169
G1 X88.876 Y125.743 E14.2534
G1 X88.866 Y125.765 E14.2546
G1 X88.677 Y126.136 E14.2753
G1 X88.666 Y126.156 E14.2765
G1 X88.284 Y126.779 E14.3129
G1 X88.271 Y126.799 E14.3141
G1 X88.026 Y127.136 E14.3349
G1 X88.012 Y127.154 E14.3361
G1 X87.537 Y127.709 E14.3725
G1 X87.521 Y127.727 E14.3737
G1 X87.227 Y128.021 E14.3945
G1 X87.209 Y128.037 E14.3956
G1 X86.654 Y128.512 E14.4321
G1 X86.636 Y128.526 E14.4333
G1 X86.299 Y128.771 E14.4540
G1 X86.279 Y128.784 E14.4552
G1 X85.656 Y129.166 E14.4916
G1 X85.636 Y129.177 E14.4928
G1 X85.265 Y129.366 E14.5136
G1 X85.243 Y129.376 E14.5148
G1 X84.569 Y129.656 E14.5512
G1 X84.547 Y129.664 E14.5524
G1 X84.150 Y129.792 E14.5732
G1 X84.128 Y129.799 E14.5743
G1 X83.397 Y129.974 E14.6118
G1 X83.372 Y129.979 E14.6131
G1 X82.918 Y130.047 E14.6360
G1 X82.893 Y130.050 E14.6373
G1 X82.189 Y130.094 E14.6725
G1 X82.179 Y130.095 E14.6729
G1 X82.013 Y130.100 E14.6812
G1 X82.004 Y130.100 E14.6817
G1 X54.889 Y130.099 E16.0345
G1 X54.877 Y130.099 E16.0351
G1 X54.669 Y130.091 E16.0454
G1 X54.657 Y130.090 E16.0460
G1 X54.040 Y130.042 E16.0769
G1 X54.017 Y130.039 E16.0781
G1 X53.606 Y129.974 E16.0989
G1 X53.582 Y129.969 E16.1000
G1 X52.872 Y129.799 E16.1365
G1 X52.850 Y129.792 E16.1376
G1 X52.453 Y129.664 E16.1584
G1 X52.431 Y129.656 E16.1596
G1 X51.757 Y129.376 E16.1960
G1 X51.735 Y129.366 E16.1972
G1 X51.364 Y129.177 E16.2180
G1 X51.344 Y129.166 E16.2192
G1 X50.721 Y128.784 E16.2556
G1 X50.701 Y128.771 E16.2568
G1 X50.364 Y128.526 E16.2776
G1 X50.346 Y128.512 E16.2787
G1 X49.791 Y128.037 E16.3152
G1 X49.773 Y128.021 E16.3163
G1 X49.479 Y127.727 E16.3371
G1 X49.463 Y127.709 E16.3383
G1 X48.988 Y127.154 E16.3747
G1 X48.974 Y127.136 E16.3759
G1 X48.729 Y126.799 E16.3967
G1 X48.716 Y126.779 E16.3979
G1 X48.334 Y126.156 E16.4343
G1 X48.323 Y126.136 E16.4355
G1 X48.134 Y125.765 E16.4562
G1 X48.124 Y125.743 E16.4574
G1 X47.844 Y125.069 E16.4939
G1 X47.836 Y125.047 E16.4950
G1 X47.708 Y124.650 E16.5158
G1 X47.701 Y124.628 E16.5170
G1 X47.531 Y123.918 E16.5534
G1 X47.526 Y123.894 E16.5546
G1 X47.461 Y123.483 E16.5754
G1 X47.458 Y123.460 E16.5765
G1 X47.410 Y122.843 E16.6074
G1 X47.409 Y122.831 E16.6080
G1 X47.401 Y122.623 E16.6184
G1 X47.401 Y122.611 E16.6190
G1 X47.401 Y120.389 E16.7299
G1 X47.401 Y120.377 E16.7304
G1 X47.409 Y120.169 E16.7408
G1 X47.410 Y120.157 E16.7414
G1 X47.458 Y119.540 E16.7723
G1 X47.461 Y119.517 E16.7735
G1 X47.526 Y119.105 E16.7943
G1 X47.531 Y119.082 E16.7954
G1 X47.701 Y118.372 E16.8319
G1 X47.708 Y118.350 E16.8330
G1 X47.836 Y117.953 E16.8538
G1 X47.844 Y117.931 E16.8550
G1 X48.124 Y117.257 E16.8914
G1 X48.134 Y117.235 E16.8926
G1 X48.323 Y116.864 E16.9134
G1 X48.334 Y116.844 E16.9146
G1 X48.716 Y116.221 E16.9510
G1 X48.729 Y116.201 E16.9522
G1 X48.974 Y115.864 E16.9729
G1 X48.988 Y115.846 E16.9741
G1 X49.463 Y115.291 E17.0106
G1 X49.479 Y115.273 E17.0117
G1 X49.773 Y114.979 E17.0325
G1 X49.791 Y114.963 E17.0337
G1 X50.346 Y114.488 E17.0701
G1 X50.364 Y114.474 E17.0713
G1 X50.701 Y114.229 E17.0921
G1 X50.721 Y114.216 E17.0933
G1 X51.344 Y113.834 E17.1297
G1 X51.364 Y113.823 E17.1309
G1 X51.735 Y113.634 E17.1516
G1 X51.757 Y113.624 E17.1528
