; G-Code generated by Simplify3D(R) Version 4.0.1
; Oct 12, 2018 at 9:40:38 PM
; Settings Summary
;   processName,Process1
;   applyToModels,hotend__belt_holder,hotend__belt_holder(2),hotend__belt_holder(3),hotend__belt_holder(4),hotend__belt_holder(5),hotend__belt_holder(6)
;   profileName,MyProfils (modified)
;   profileVersion,2018-09-14 23:07:24
;   baseProfile,Default (modified)
;   printMaterial,PLA
;   printQuality,0.2
;   printExtruders,
;   extruderName,Primary Extruder
;   extruderToolheadNumber,0
;   extruderDiameter,0.4
;   extruderAutoWidth,0
;   extruderWidth,0.4
;   extrusionMultiplier,1
;   extruderUseRetract,1
;   extruderRetractionDistance,2.8
;   extruderExtraRestartDistance,-0.2
;   extruderRetractionZLift,0
;   extruderRetractionSpeed,1800
;   extruderUseCoasting,0
;   extruderCoastingDistance,0.2
;   extruderUseWipe,0
;   extruderWipeDistance,5
;   primaryExtruder,0
;   layerHeight,0.2
;   topSolidLayers,3
;   bottomSolidLayers,3
;   perimeterOutlines,2
;   printPerimetersInsideOut,1
;   startPointOption,2
;   startPointOriginX,0
;   startPointOriginY,0
;   sequentialIslands,0
;   spiralVaseMode,0
;   firstLayerHeightPercentage,100
;   firstLayerWidthPercentage,100
;   firstLayerUnderspeed,0.75
;   useRaft,0
;   raftExtruder,0
;   raftTopLayers,3
;   raftBaseLayers,2
;   raftOffset,3
;   raftSeparationDistance,0.14
;   raftTopInfill,100
;   aboveRaftSpeedMultiplier,0.3
;   useSkirt,1
;   skirtExtruder,0
;   skirtLayers,1
;   skirtOutlines,2
;   skirtOffset,5
;   usePrimePillar,0
;   primePillarExtruder,999
;   primePillarWidth,12
;   primePillarLocation,7
;   primePillarSpeedMultiplier,1
;   useOozeShield,0
;   oozeShieldExtruder,999
;   oozeShieldOffset,2
;   oozeShieldOutlines,1
;   oozeShieldSidewallShape,1
;   oozeShieldSidewallAngle,30
;   oozeShieldSpeedMultiplier,1
;   infillExtruder,0
;   internalInfillPattern,Rectilinear
;   externalInfillPattern,Rectilinear
;   infillPercentage,70
;   outlineOverlapPercentage,15
;   infillExtrusionWidthPercentage,100
;   minInfillLength,5
;   infillLayerInterval,1
;   internalInfillAngles,45,-45
;   overlapInternalInfillAngles,0
;   externalInfillAngles,45,-45
;   generateSupport,0
;   supportExtruder,0
;   supportInfillPercentage,12
;   supportExtraInflation,0
;   supportBaseLayers,2
;   denseSupportExtruder,0
;   denseSupportLayers,0
;   denseSupportInfillPercentage,40
;   supportLayerInterval,1
;   supportHorizontalPartOffset,0.1
;   supportUpperSeparationLayers,1
;   supportLowerSeparationLayers,1
;   supportType,0
;   supportGridSpacing,4.5
;   maxOverhangAngle,60
;   supportAngles,0
;   temperatureName,Primary Extruder,Bed
;   temperatureNumber,0,0
;   temperatureSetpointCount,1,1
;   temperatureSetpointLayers,1,1
;   temperatureSetpointTemperatures,220,60
;   temperatureStabilizeAtStartup,1,1
;   temperatureHeatedBed,0,1
;   temperatureRelayBetweenLayers,0,0
;   temperatureRelayBetweenLoops,0,0
;   fanLayers,1,3
;   fanSpeeds,0,60
;   blipFanToFullPower,0
;   adjustSpeedForCooling,1
;   minSpeedLayerTime,15
;   minCoolingSpeedSlowdown,20
;   increaseFanForCooling,1
;   minFanLayerTime,45
;   maxCoolingFanSpeed,100
;   increaseFanForBridging,1
;   bridgingFanSpeed,100
;   use5D,1
;   relativeEdistances,0
;   allowEaxisZeroing,1
;   independentExtruderAxes,0
;   includeM10123,0
;   stickySupport,1
;   applyToolheadOffsets,0
;   gcodeXoffset,0
;   gcodeYoffset,0
;   gcodeZoffset,0
;   overrideMachineDefinition,0
;   machineTypeOverride,0
;   strokeXoverride,200
;   strokeYoverride,200
;   strokeZoverride,200
;   originOffsetXoverride,0
;   originOffsetYoverride,0
;   originOffsetZoverride,0
;   homeXdirOverride,-1
;   homeYdirOverride,-1
;   homeZdirOverride,-1
;   flipXoverride,1
;   flipYoverride,-1
;   flipZoverride,1
;   toolheadOffsets,0,0|0,0|0,0|0,0|0,0|0,0
;   overrideFirmwareConfiguration,0
;   firmwareTypeOverride,RepRap (Marlin/Repetier/Sprinter)
;   GPXconfigOverride,r2
;   baudRateOverride,115200
;   overridePrinterModels,0
;   printerModelsOverride
;   startingGcode,G28 ;Home,G29 ;Bed leveling,G92 E0 ;Prime the extruder,G1 F6000 X0 Y205,G1 E2,G1 F600 Z0.2,G1 F1800 X100 E12,G1 E10,G92 E0
;   layerChangeGcode,
;   retractionGcode,
;   toolChangeGcode,
;   endingGcode,M104 S0 ; turn off extruder,M140 S0 ; turn off bed,G92 E1,G1 E-1 F300,G1 F6000 X5 Y200,M106 S0,M84 ; disable motors
;   exportFileFormat,gcode
;   celebration,0
;   celebrationSong,Random Song
;   postProcessing,
;   defaultSpeed,4800
;   outlineUnderspeed,0.8
;   solidInfillUnderspeed,0.8
;   supportUnderspeed,0.8
;   rapidXYspeed,6000
;   rapidZspeed,1000
;   minBridgingArea,50
;   bridgingExtraInflation,0
;   bridgingExtrusionMultiplier,1
;   bridgingSpeedMultiplier,1
;   useFixedBridgingAngle,0
;   fixedBridgingAngle,0
;   applyBridgingToPerimeters,0
;   filamentDiameters,1.75|1.75|1.75|1.75|1.75|1.75
;   filamentPricesPerKg,105|46|46|46|46|46
;   filamentDensities,1.25|1.25|1.25|1.25|1.25|1.25
;   useMinPrintHeight,0
;   minPrintHeight,0
;   useMaxPrintHeight,0
;   maxPrintHeight,0
;   useDiaphragm,0
;   diaphragmLayerInterval,20
;   robustSlicing,1
;   mergeAllIntoSolid,0
;   onlyRetractWhenCrossingOutline,1
;   retractBetweenLayers,1
;   useRetractionMinTravel,1
;   retractionMinTravel,3
;   retractWhileWiping,0
;   onlyWipeOutlines,1
;   avoidCrossingOutline,0
;   maxMovementDetourFactor,3
;   toolChangeRetractionDistance,12
;   toolChangeExtraRestartDistance,-0.5
;   toolChangeRetractionSpeed,600
;   externalThinWallType,0
;   internalThinWallType,2
;   thinWallAllowedOverlapPercentage,10
;   singleExtrusionMinLength,1
;   singleExtrusionMinPrintingWidthPercentage,50
;   singleExtrusionMaxPrintingWidthPercentage,200
;   singleExtrusionEndpointExtension,0.2
;   horizontalSizeCompensation,0
G90
M82
M106 S0
M140 S60
M190 S60
M104 S220 T0
M109 S220 T0
G28 ;Home
G29 ;Bed leveling
G92 E0 ;Prime the extruder
G1 F6000 X0 Y205
G1 E2
G1 F600 Z0.2
G1 F1800 X100 E12
G1 E10
G92 E0
G92 E0
G1 E-2.8000 F1800
G1 Z0.200 F1000
; process Process1
; layer 1, Z = 0.200
M106 S17
T0
; tool H0.200 W0.400
; skirt
G1 X78.677 Y76.979 F6000
G1 E-0.2000 F540
G92 E0
G1 X79.520 Y76.215 E0.0378 F3600
G1 X79.561 Y76.184 E0.0396
G1 X80.326 Y75.697 E0.0697
G1 X80.372 Y75.674 E0.0714
G1 X81.622 Y75.153 E0.1165
G1 X81.678 Y75.136 E0.1184
G1 X82.690 Y74.930 E0.1528
G1 X82.748 Y74.924 E0.1547
G1 X86.543 Y74.900 E0.2810
G1 X86.552 Y74.900 E0.2812
G1 X86.699 Y74.903 E0.2861
G1 X86.707 Y74.903 E0.2864
G1 X87.133 Y74.924 E0.3006
G1 X87.162 Y74.927 E0.3016
G1 X87.677 Y75.004 E0.3189
G1 X87.706 Y75.009 E0.3199
G1 X88.686 Y75.255 E0.3535
G1 X88.735 Y75.272 E0.3552
G1 X89.569 Y75.642 E0.3855
G1 X89.614 Y75.666 E0.3872
G1 X89.985 Y75.914 E0.4021
G1 X90.326 Y75.697 E0.4155
G1 X90.372 Y75.674 E0.4172
G1 X91.622 Y75.153 E0.4623
G1 X91.678 Y75.136 E0.4642
G1 X92.690 Y74.930 E0.4986
G1 X92.748 Y74.924 E0.5005
G1 X96.543 Y74.900 E0.6267
G1 X96.552 Y74.900 E0.6270
G1 X96.699 Y74.903 E0.6319
G1 X96.707 Y74.903 E0.6322
G1 X97.133 Y74.924 E0.6464
G1 X97.162 Y74.927 E0.6473
G1 X97.677 Y75.004 E0.6647
G1 X97.706 Y75.009 E0.6656
G1 X98.686 Y75.255 E0.6992
G1 X98.735 Y75.272 E0.7010
G1 X99.569 Y75.642 E0.7313
G1 X99.614 Y75.666 E0.7330
G1 X99.985 Y75.914 E0.7479
G1 X100.326 Y75.697 E0.7613
G1 X100.372 Y75.674 E0.7630
G1 X101.622 Y75.153 E0.8081
G1 X101.678 Y75.136 E0.8100
G1 X102.690 Y74.930 E0.8443
G1 X102.748 Y74.924 E0.8463
G1 X106.543 Y74.900 E0.9725
G1 X106.552 Y74.900 E0.9728
G1 X106.699 Y74.903 E0.9777
G1 X106.707 Y74.903 E0.9780
G1 X107.133 Y74.924 E0.9921
G1 X107.162 Y74.927 E0.9931
G1 X107.677 Y75.004 E1.0104
G1 X107.706 Y75.009 E1.0114
G1 X108.686 Y75.255 E1.0450
G1 X108.735 Y75.272 E1.0467
G1 X109.569 Y75.642 E1.0771
G1 X109.614 Y75.666 E1.0788
G1 X109.985 Y75.914 E1.0936
G1 X110.326 Y75.697 E1.1071
G1 X110.372 Y75.674 E1.1088
G1 X111.622 Y75.153 E1.1538
G1 X111.678 Y75.136 E1.1558
G1 X112.690 Y74.930 E1.1901
G1 X112.748 Y74.924 E1.1921
G1 X116.543 Y74.900 E1.3183
G1 X116.552 Y74.900 E1.3186
G1 X116.699 Y74.903 E1.3235
G1 X116.707 Y74.903 E1.3237
G1 X117.133 Y74.924 E1.3379
G1 X117.162 Y74.927 E1.3389
G1 X117.677 Y75.004 E1.3562
G1 X117.706 Y75.009 E1.3572
G1 X118.686 Y75.255 E1.3908
G1 X118.735 Y75.272 E1.3925
G1 X119.569 Y75.642 E1.4229
G1 X119.614 Y75.666 E1.4246
G1 X119.985 Y75.914 E1.4394
G1 X120.326 Y75.697 E1.4529
G1 X120.372 Y75.674 E1.4546
G1 X121.622 Y75.153 E1.4996
G1 X121.678 Y75.136 E1.5016
G1 X122.690 Y74.930 E1.5359
G1 X122.748 Y74.924 E1.5379
G1 X126.543 Y74.900 E1.6641
G1 X126.552 Y74.900 E1.6644
G1 X126.699 Y74.903 E1.6693
G1 X126.707 Y74.903 E1.6695
G1 X127.133 Y74.924 E1.6837
G1 X127.162 Y74.927 E1.6847
G1 X127.677 Y75.004 E1.7020
G1 X127.706 Y75.009 E1.7030
G1 X128.686 Y75.255 E1.7366
G1 X128.735 Y75.272 E1.7383
G1 X129.569 Y75.642 E1.7687
G1 X129.614 Y75.666 E1.7704
G1 X130.752 Y76.427 E1.8159
G1 X130.798 Y76.464 E1.8179
G1 X131.536 Y77.202 E1.8526
G1 X131.573 Y77.248 E1.8545
G1 X132.369 Y78.438 E1.9021
G1 X132.396 Y78.489 E1.9041
G1 X132.795 Y79.448 E1.9386
G1 X132.812 Y79.504 E1.9406
G1 X133.042 Y80.649 E1.9794
G1 X133.046 Y80.678 E1.9804
G1 X133.098 Y81.203 E1.9979
G1 X133.100 Y81.232 E1.9989
G1 X133.095 Y101.925 E2.6871
G1 X133.093 Y101.961 E2.6884
G1 X133.013 Y102.607 E2.7100
G1 X133.006 Y102.643 E2.7112
G1 X132.761 Y103.622 E2.7448
G1 X132.747 Y103.664 E2.7463
G1 X132.448 Y104.387 E2.7723
G1 X132.428 Y104.426 E2.7737
G1 X131.875 Y105.349 E2.8095
G1 X131.850 Y105.385 E2.8110
G1 X131.354 Y105.989 E2.8370
G1 X131.323 Y106.021 E2.8385
G1 X130.478 Y106.787 E2.8764
G1 X130.437 Y106.819 E2.8781
G1 X129.666 Y107.307 E2.9085
G1 X129.620 Y107.331 E2.9102
G1 X128.361 Y107.852 E2.9555
G1 X128.306 Y107.869 E2.9574
G1 X127.294 Y108.073 E2.9918
G1 X127.236 Y108.078 E2.9937
G1 X123.095 Y108.097 E3.1314
G1 X123.058 Y108.094 E3.1327
G1 X122.400 Y108.015 E3.1547
G1 X122.363 Y108.008 E3.1560
G1 X121.314 Y107.745 E3.1919
G1 X121.265 Y107.728 E3.1936
G1 X120.431 Y107.358 E3.2240
G1 X120.386 Y107.334 E3.2257
G1 X120.015 Y107.086 E3.2406
G1 X119.666 Y107.307 E3.2543
G1 X119.620 Y107.331 E3.2560
G1 X118.361 Y107.852 E3.3013
G1 X118.306 Y107.869 E3.3033
G1 X117.294 Y108.073 E3.3376
G1 X117.236 Y108.078 E3.3395
G1 X113.095 Y108.097 E3.4772
G1 X113.058 Y108.094 E3.4785
G1 X112.400 Y108.015 E3.5005
G1 X112.363 Y108.008 E3.5018
G1 X111.314 Y107.745 E3.5377
G1 X111.265 Y107.728 E3.5395
G1 X110.431 Y107.358 E3.5698
G1 X110.386 Y107.334 E3.5715
G1 X110.015 Y107.086 E3.5864
G1 X109.666 Y107.307 E3.6001
G1 X109.620 Y107.331 E3.6018
G1 X108.361 Y107.852 E3.6471
G1 X108.306 Y107.869 E3.6491
G1 X107.294 Y108.073 E3.6834
G1 X107.236 Y108.078 E3.6853
G1 X103.095 Y108.097 E3.8231
G1 X103.058 Y108.094 E3.8243
G1 X102.400 Y108.015 E3.8463
G1 X102.363 Y108.008 E3.8476
G1 X101.314 Y107.745 E3.8836
G1 X101.265 Y107.728 E3.8853
G1 X100.431 Y107.358 E3.9156
G1 X100.386 Y107.334 E3.9173
G1 X100.015 Y107.086 E3.9322
G1 X99.666 Y107.307 E3.9459
G1 X99.620 Y107.331 E3.9476
G1 X98.361 Y107.852 E3.9929
G1 X98.306 Y107.869 E3.9949
G1 X97.294 Y108.073 E4.0292
G1 X97.236 Y108.078 E4.0312
G1 X93.095 Y108.097 E4.1689
G1 X93.088 Y108.096 E4.1691
G1 X93.098 Y108.203 E4.1727
G1 X93.100 Y108.232 E4.1737
G1 X93.095 Y128.925 E4.8619
G1 X93.093 Y128.961 E4.8631
G1 X93.013 Y129.607 E4.8848
G1 X93.006 Y129.643 E4.8860
G1 X92.761 Y130.623 E4.9196
G1 X92.747 Y130.665 E4.9210
G1 X92.448 Y131.387 E4.9470
G1 X92.428 Y131.426 E4.9485
G1 X91.842 Y132.405 E4.9864
G1 X91.811 Y132.447 E4.9882
G1 X91.215 Y133.138 E5.0185
G1 X91.178 Y133.174 E5.0202
G1 X90.171 Y134.000 E5.0636
G1 X90.129 Y134.029 E5.0653
G1 X89.335 Y134.479 E5.0956
G1 X89.288 Y134.501 E5.0974
G1 X88.157 Y134.905 E5.1373
G1 X88.108 Y134.918 E5.1390
G1 X87.221 Y135.074 E5.1689
G1 X87.170 Y135.079 E5.1706
G1 X83.095 Y135.097 E5.3062
G1 X83.058 Y135.094 E5.3074
G1 X82.400 Y135.015 E5.3295
G1 X82.363 Y135.008 E5.3307
G1 X81.314 Y134.745 E5.3667
G1 X81.265 Y134.728 E5.3684
G1 X80.431 Y134.359 E5.3987
G1 X80.386 Y134.334 E5.4005
G1 X79.248 Y133.573 E5.4460
G1 X79.202 Y133.536 E5.4479
G1 X78.464 Y132.798 E5.4827
G1 X78.427 Y132.752 E5.4846
G1 X77.632 Y131.562 E5.5322
G1 X77.604 Y131.511 E5.5342
G1 X77.205 Y130.552 E5.5687
G1 X77.188 Y130.496 E5.5707
G1 X76.958 Y129.351 E5.6095
G1 X76.954 Y129.322 E5.6105
G1 X76.902 Y128.797 E5.6280
G1 X76.900 Y128.768 E5.6290
G1 X76.905 Y108.075 E6.3172
G1 X76.907 Y108.039 E6.3184
G1 X76.987 Y107.393 E6.3401
G1 X76.994 Y107.357 E6.3413
G1 X77.239 Y106.377 E6.3749
G1 X77.253 Y106.336 E6.3764
G1 X77.552 Y105.613 E6.4024
G1 X77.572 Y105.574 E6.4038
G1 X77.920 Y104.993 E6.4263
G1 X77.631 Y104.562 E6.4436
G1 X77.604 Y104.511 E6.4455
G1 X77.205 Y103.552 E6.4801
G1 X77.188 Y103.496 E6.4820
G1 X76.958 Y102.351 E6.5208
G1 X76.954 Y102.322 E6.5218
G1 X76.902 Y101.797 E6.5394
G1 X76.900 Y101.768 E6.5403
G1 X76.905 Y81.075 E7.2286
G1 X76.907 Y81.039 E7.2298
G1 X76.987 Y80.393 E7.2514
G1 X76.994 Y80.357 E7.2527
G1 X77.239 Y79.377 E7.2862
G1 X77.253 Y79.335 E7.2877
G1 X77.552 Y78.613 E7.3137
G1 X77.572 Y78.574 E7.3152
G1 X78.125 Y77.651 E7.3509
G1 X78.150 Y77.615 E7.3524
G1 X78.646 Y77.011 E7.3784
G1 X78.677 Y76.979 E7.3799
G1 X78.946 Y77.276 F6000
G92 E0
G1 X78.956 Y77.265 E0.0005 F3600
G1 X79.776 Y76.522 E0.0373
G1 X79.789 Y76.512 E0.0378
G1 X80.526 Y76.044 E0.0669
G1 X80.542 Y76.036 E0.0675
G1 X81.758 Y75.529 E0.1113
G1 X81.777 Y75.524 E0.1119
G1 X82.751 Y75.326 E0.1450
G1 X82.770 Y75.324 E0.1456
G1 X86.543 Y75.300 E0.2711
G1 X86.546 Y75.300 E0.2712
G1 X86.687 Y75.303 E0.2759
G1 X86.690 Y75.303 E0.2760
G1 X87.104 Y75.323 E0.2898
G1 X87.113 Y75.324 E0.2901
G1 X87.609 Y75.398 E0.3068
G1 X87.619 Y75.400 E0.3071
G1 X88.572 Y75.639 E0.3398
G1 X88.588 Y75.644 E0.3404
G1 X89.391 Y76.000 E0.3696
G1 X89.407 Y76.009 E0.3702
G1 X89.980 Y76.391 E0.3931
G1 X90.526 Y76.044 E0.4146
G1 X90.542 Y76.036 E0.4152
G1 X91.758 Y75.529 E0.4590
G1 X91.777 Y75.524 E0.4597
G1 X92.751 Y75.326 E0.4927
G1 X92.770 Y75.324 E0.4934
G1 X96.543 Y75.300 E0.6189
G1 X96.546 Y75.300 E0.6190
G1 X96.687 Y75.303 E0.6237
G1 X96.690 Y75.303 E0.6238
G1 X97.104 Y75.323 E0.6375
G1 X97.113 Y75.324 E0.6379
G1 X97.609 Y75.398 E0.6545
G1 X97.619 Y75.400 E0.6549
G1 X98.572 Y75.639 E0.6876
G1 X98.588 Y75.644 E0.6881
G1 X99.391 Y76.000 E0.7173
G1 X99.407 Y76.009 E0.7179
G1 X99.980 Y76.391 E0.7408
G1 X100.526 Y76.044 E0.7624
G1 X100.542 Y76.036 E0.7629
G1 X101.758 Y75.529 E0.8068
G1 X101.777 Y75.524 E0.8074
G1 X102.751 Y75.326 E0.8405
G1 X102.770 Y75.324 E0.8411
G1 X106.543 Y75.300 E0.9666
G1 X106.546 Y75.300 E0.9667
G1 X106.687 Y75.303 E0.9714
G1 X106.690 Y75.303 E0.9715
G1 X107.104 Y75.323 E0.9853
G1 X107.113 Y75.324 E0.9856
G1 X107.609 Y75.398 E1.0023
G1 X107.619 Y75.400 E1.0026
G1 X108.572 Y75.639 E1.0353
G1 X108.588 Y75.644 E1.0359
G1 X109.391 Y76.000 E1.0651
G1 X109.407 Y76.009 E1.0657
G1 X109.980 Y76.391 E1.0886
G1 X110.526 Y76.044 E1.1101
G1 X110.542 Y76.036 E1.1107
G1 X111.758 Y75.529 E1.1545
G1 X111.777 Y75.524 E1.1552
G1 X112.751 Y75.326 E1.1882
G1 X112.770 Y75.324 E1.1889
G1 X116.543 Y75.300 E1.3144
G1 X116.546 Y75.300 E1.3145
G1 X116.687 Y75.303 E1.3192
G1 X116.690 Y75.303 E1.3193
G1 X117.104 Y75.323 E1.3330
G1 X117.113 Y75.324 E1.3334
G1 X117.609 Y75.398 E1.3500
G1 X117.619 Y75.400 E1.3503
G1 X118.572 Y75.639 E1.3830
G1 X118.588 Y75.644 E1.3836
G1 X119.391 Y76.000 E1.4128
G1 X119.407 Y76.009 E1.4134
G1 X119.980 Y76.391 E1.4363
G1 X120.526 Y76.044 E1.4579
G1 X120.542 Y76.036 E1.4584
G1 X121.758 Y75.529 E1.5023
G1 X121.777 Y75.524 E1.5029
G1 X122.751 Y75.326 E1.5360
G1 X122.770 Y75.324 E1.5366
G1 X126.543 Y75.300 E1.6621
G1 X126.546 Y75.300 E1.6622
G1 X126.687 Y75.303 E1.6669
G1 X126.690 Y75.303 E1.6670
G1 X127.104 Y75.323 E1.6808
G1 X127.113 Y75.324 E1.6811
G1 X127.609 Y75.398 E1.6978
G1 X127.619 Y75.400 E1.6981
G1 X128.572 Y75.639 E1.7308
G1 X128.588 Y75.644 E1.7314
G1 X129.391 Y76.000 E1.7606
G1 X129.407 Y76.009 E1.7612
G1 X130.514 Y76.748 E1.8054
G1 X130.529 Y76.761 E1.8061
G1 X131.239 Y77.471 E1.8395
G1 X131.252 Y77.486 E1.8402
G1 X132.025 Y78.644 E1.8865
G1 X132.034 Y78.661 E1.8871
G1 X132.418 Y79.584 E1.9203
G1 X132.423 Y79.602 E1.9210
G1 X132.648 Y80.718 E1.9588
G1 X132.649 Y80.728 E1.9592
